apps/32/checkbox.svg

<?xml version="1.0" encoding="UTF-8" standalone="no"?>
<!-- Created with Inkscape (http://www.inkscape.org/) -->

<svg
   xmlns:svg="http://www.w3.org/2000/svg"
   xmlns="http://www.w3.org/2000/svg"
   xmlns:xlink="http://www.w3.org/1999/xlink"
   version="1.0"
   width="32"
   height="32"
   id="svg2622">
  <defs
     id="defs2624">
    <linearGradient
       id="linearGradient10691">
      <stop
         id="stop10693"
         style="stop-color:black;stop-opacity:1"
         offset="0" />
      <stop
         id="stop10695"
         style="stop-color:black;stop-opacity:0"
         offset="1" />
    </linearGradient>
    <linearGradient
       id="linearGradient3406">
      <stop
         id="stop3408"
         style="stop-color:gray;stop-opacity:1"
         offset="0" />
      <stop
         id="stop3414"
         style="stop-color:gray;stop-opacity:1"
         offset="0.30009115" />
      <stop
         id="stop3416"
         style="stop-color:#969696;stop-opacity:1"
         offset="0.4148587" />
      <stop
         id="stop3410"
         style="stop-color:#969696;stop-opacity:1"
         offset="1" />
    </linearGradient>
    <linearGradient
       id="linearGradient3418">
      <stop
         id="stop3420"
         style="stop-color:#aaa;stop-opacity:1"
         offset="0" />
      <stop
         id="stop3426"
         style="stop-color:#b3b3b3;stop-opacity:1"
         offset="0.26436639" />
      <stop
         id="stop3428"
         style="stop-color:#bebebe;stop-opacity:1"
         offset="0.39481503" />
      <stop
         id="stop3422"
         style="stop-color:#b3b3b3;stop-opacity:1"
         offset="1" />
    </linearGradient>
    <linearGradient
       id="linearGradient3269">
      <stop
         id="stop3271"
         style="stop-color:white;stop-opacity:1"
         offset="0" />
      <stop
         id="stop3273"
         style="stop-color:white;stop-opacity:0"
         offset="1" />
    </linearGradient>
    <linearGradient
       id="linearGradient3104-947-917-603-424-766-313">
      <stop
         id="stop3930"
         style="stop-color:#28673f;stop-opacity:1"
         offset="0" />
      <stop
         id="stop3932"
         style="stop-color:#41ae67;stop-opacity:1"
         offset="1" />
    </linearGradient>
    <linearGradient
       id="linearGradient3298-628-126-871-718-519-851">
      <stop
         id="stop3924"
         style="stop-color:#2f7b48;stop-opacity:1"
         offset="0" />
      <stop
         id="stop3926"
         style="stop-color:#76dd98;stop-opacity:1"
         offset="1" />
    </linearGradient>
    <linearGradient
       id="linearGradient3202">
      <stop
         id="stop3204"
         style="stop-color:white;stop-opacity:1"
         offset="0" />
      <stop
         id="stop3206"
         style="stop-color:#d3eefc;stop-opacity:1"
         offset="1" />
    </linearGradient>
    <linearGradient
       id="linearGradient3738">
      <stop
         id="stop3742"
         style="stop-color:white;stop-opacity:1"
         offset="0" />
      <stop
         id="stop3750"
         style="stop-color:white;stop-opacity:0"
         offset="0.85612506" />
      <stop
         id="stop3744"
         style="stop-color:white;stop-opacity:0"
         offset="1" />
    </linearGradient>
    <linearGradient
       x1="17.355219"
       y1="8.000001"
       x2="24.007845"
       y2="26.039217"
       id="linearGradient2427"
       xlink:href="#linearGradient3738"
       gradientUnits="userSpaceOnUse"
       gradientTransform="matrix(0.778456,0,0,0.8315217,-2.6890526,-4.6521742)" />
    <linearGradient
       x1="31.84656"
       y1="31.999964"
       x2="31.84656"
       y2="0.99868447"
       id="linearGradient2434"
       xlink:href="#linearGradient3298-628-126-871-718-519-851"
       gradientUnits="userSpaceOnUse"
       gradientTransform="matrix(0.6611224,0,0,0.6605792,-1.796041,1.6948635)" />
    <linearGradient
       x1="-51.786404"
       y1="35.412201"
       x2="-51.786404"
       y2="2.2594204"
       id="linearGradient2436"
       xlink:href="#linearGradient3104-947-917-603-424-766-313"
       gradientUnits="userSpaceOnUse"
       gradientTransform="matrix(0.5338542,0,0,0.6182037,37.481394,0.9586613)" />
    <linearGradient
       x1="19.283365"
       y1="42.361061"
       x2="19.283365"
       y2="34.020142"
       id="linearGradient2440"
       xlink:href="#linearGradient3269"
       gradientUnits="userSpaceOnUse"
       gradientTransform="matrix(0.5661698,0,0,0.5024297,2.4119239,7.1564579)" />
    <linearGradient
       x1="26.870913"
       y1="45"
       x2="26.746988"
       y2="36.943203"
       id="linearGradient2443"
       xlink:href="#linearGradient3418"
       gradientUnits="userSpaceOnUse"
       gradientTransform="matrix(0.6521739,0,0,0.7,0.3478258,-0.6499977)" />
    <linearGradient
       x1="24.000002"
       y1="45"
       x2="24.000002"
       y2="37.974422"
       id="linearGradient2445"
       xlink:href="#linearGradient3406"
       gradientUnits="userSpaceOnUse"
       gradientTransform="matrix(0.6521739,0,0,0.7,0.3478258,-0.6499977)" />
    <radialGradient
       cx="6.702713"
       cy="73.615715"
       r="7.228416"
       fx="6.702713"
       fy="73.615715"
       id="radialGradient2448"
       xlink:href="#linearGradient10691"
       gradientUnits="userSpaceOnUse"
       gradientTransform="matrix(1.521772,0,0,0.4842001,5.7999999,-7.144735)" />
    <linearGradient
       x1="-83.756935"
       y1="-7.8379993"
       x2="-92.222527"
       y2="27.521217"
       id="linearGradient2457"
       xlink:href="#linearGradient3202"
       gradientUnits="userSpaceOnUse"
       gradientTransform="matrix(0.4144579,-0.09984975,0.09922819,0.4170536,51.491473,-0.6839296)" />
  </defs>
  <path
     d="M 27,28.5 C 27,30.432997 22.075132,32 16,32 9.9248673,32 4.9999999,30.432997 4.9999999,28.5 4.9999999,26.567003 9.9248673,25 16,25 c 6.075132,0 11,1.567003 11,3.5 z"
     id="path2883"
     style="opacity:0.4;fill:url(#radialGradient2448);fill-opacity:1;fill-rule:nonzero;stroke:none;stroke-width:0.80000001;marker:none;visibility:visible;display:inline;overflow:visible" />
  <path
     d="m 9.467037,24.204783 c 0,0 -0.9439761,4.198091 -0.9439761,4.478522 0,0.264894 -0.2124085,1.816694 0.6520598,1.816694 0.8493413,0 13.1563073,0 13.8159363,0 0.66087,0 0.449502,-1.860977 0.506767,-2.008791 C 23.553209,28.348249 22.53283,24.2 22.53283,24.2 L 9.467037,24.2048 z"
     id="path2170"
     style="fill:url(#linearGradient2443);fill-opacity:1;fill-rule:evenodd;stroke:url(#linearGradient2445);stroke-width:1;stroke-linecap:round;stroke-linejoin:round;stroke-miterlimit:4;stroke-opacity:1;stroke-dasharray:none" />
  <path
     d="m 10.338302,24.503249 c 0,0 -0.6257769,2.988149 -0.7691699,3.453075 -0.1424181,0.46176 -0.1107996,0.543675 0.5417539,0.543675 0.63938,0 11.339238,0 11.85626,0 0.53003,0 0.587883,-0.163576 0.498346,-0.548902 -0.08755,-0.376782 -0.803796,-3.451098 -0.803796,-3.451098 l -11.323394,0.0033 z"
     id="path2186"
     style="opacity:0.4;fill:none;stroke:url(#linearGradient2440);stroke-width:0.99999988;stroke-linecap:round;stroke-linejoin:round;stroke-miterlimit:4;stroke-opacity:1;stroke-dasharray:none" />
  <path
     d="m 1.1437212,2.9506181e-4 c 9.9041858,0 19.8083728,0 29.7125578,0 C 31.96043,-0.0088611 32.054776,1.2126089 31.980901,2.0553816 c 0,7.2602749 -3e-6,14.5205504 -3e-6,21.7808244 0.009,1.123532 -1.191403,1.21953 -2.019642,1.14436 -9.605847,0 -19.21169,0 -28.8175348,0 -1.10415269,0.0092 -1.19849705,-1.212314 -1.12462198,-2.055087 0,-7.260277 0,-14.5205517 0,-21.7808268 C 0.00450138,0.52953068 0.5390027,-0.01450844 1.1437212,2.9506181e-4 z"
     id="rect3170"
     style="fill:#1a1a1a;fill-opacity:1;fill-rule:evenodd;stroke:none;stroke-width:1.00396323;marker:none;visibility:visible;display:inline;overflow:visible;enable-background:accumulate" />
  <path
     d="m 2.499962,2.4999613 c 5.302393,0 21.697684,0 27.000077,0 0,8.3441337 0,13.2492397 0,20.0000767 -7.713112,0 -19.286968,0 -27.000077,0 0,-9.908705 0,-10.091372 0,-20.0000767 z"
     id="path4322"
     style="fill:url(#linearGradient2434);fill-opacity:1;stroke:url(#linearGradient2436);stroke-width:0.9999218;stroke-linecap:butt;stroke-linejoin:round;stroke-miterlimit:4;stroke-opacity:1;stroke-dasharray:none;stroke-dashoffset:0;display:inline" />
  <path
     d="m 20.195006,4.2339604 c -0.228042,-0.023289 -0.454759,0.0891 -0.571925,0.3048656 l -4.992119,9.191156 -3.209611,-2.568025 c -0.285898,-0.157203 -0.642601,-0.05607 -0.798824,0.231617 l -1.4393233,1.859478 c -0.156221,0.287684 -0.051127,0.646515 0.234769,0.803714 0,0 5.8603463,4.870454 5.8675773,4.874055 0.06701,0.03684 0.137078,0.05538 0.208306,0.06444 0.23268,0.02958 0.470802,-0.08042 0.590407,-0.300678 L 22.816797,6.2991657 C 22.973019,6.0114781 22.867925,5.6526502 22.582029,5.4954501 L 20.421796,4.3025863 c -0.07148,-0.039301 -0.150775,-0.060864 -0.22679,-0.068626 z"
     id="path1542"
     style="opacity:0.35;fill:black;fill-opacity:1;fill-rule:nonzero;stroke:none;stroke-width:1.00278974;marker:none;visibility:visible;display:inline;overflow:visible" />
  <path
     d="m 20.195006,5.2339604 c -0.228042,-0.02329 -0.454759,0.0891 -0.571925,0.30487 l -4.992119,9.1911536 -3.209611,-2.568026 c -0.285898,-0.157203 -0.642601,-0.05607 -0.798824,0.231616 l -1.4393233,1.859479 c -0.156221,0.287684 -0.051127,0.646514 0.234769,0.803715 0,0 5.8603463,4.870452 5.8675773,4.874055 0.06701,0.03684 0.137078,0.05538 0.208306,0.06444 0.23268,0.02959 0.470802,-0.08042 0.590407,-0.300678 L 22.816797,7.2991704 c 0.156222,-0.28769 0.05113,-0.64652 -0.234768,-0.80372 l -2.160233,-1.19286 c -0.07148,-0.0393 -0.150775,-0.06087 -0.22679,-0.06863 z"
     id="path4368"
     style="fill:url(#linearGradient2457);fill-opacity:1;fill-rule:nonzero;stroke:none;stroke-width:1.00278974;marker:none;visibility:visible;display:inline;overflow:visible" />
  <path
     d="M 2,2.0260863 2,17 C 3.3333333,16.642143 29.562174,8.2726568 29.999993,7.8304336 L 30,2 2,2.0260863 z"
     id="path4073"
     style="opacity:0.3;fill:url(#linearGradient2427);fill-opacity:1;fill-rule:evenodd;stroke:none" />
</svg>

<?xml version="1.0" encoding="UTF-8" standalone="no"?>
<!-- Created with Inkscape (http://www.inkscape.org/) -->
<svg
   xmlns:svg="http://www.w3.org/2000/svg"
   xmlns="http://www.w3.org/2000/svg"
   xmlns:xlink="http://www.w3.org/1999/xlink"
   version="1.0"
   width="32"
   height="32"
   id="svg2622">
  <defs
     id="defs2624">
    <linearGradient
       id="linearGradient10691">
      <stop
         id="stop10693"
         style="stop-color:#000000;stop-opacity:1"
         offset="0" />
      <stop
         id="stop10695"
         style="stop-color:#000000;stop-opacity:0"
         offset="1" />
    </linearGradient>
    <radialGradient
       cx="6.702713"
       cy="73.615715"
       r="7.228416"
       fx="6.702713"
       fy="73.615715"
       id="radialGradient2599"
       xlink:href="#linearGradient10691"
       gradientUnits="userSpaceOnUse"
       gradientTransform="matrix(1.521772,0,0,0.4842001,5.7999999,-7.144735)" />
    <linearGradient
       id="linearGradient3406">
      <stop
         id="stop3408"
         style="stop-color:#808080;stop-opacity:1"
         offset="0" />
      <stop
         id="stop3414"
         style="stop-color:#808080;stop-opacity:1"
         offset="0.30009115" />
      <stop
         id="stop3416"
         style="stop-color:#969696;stop-opacity:1"
         offset="0.4148587" />
      <stop
         id="stop3410"
         style="stop-color:#969696;stop-opacity:1"
         offset="1" />
    </linearGradient>
    <linearGradient
       x1="24.000002"
       y1="45"
       x2="24.000002"
       y2="37.974422"
       id="linearGradient2596"
       xlink:href="#linearGradient3406"
       gradientUnits="userSpaceOnUse"
       gradientTransform="matrix(0.6521739,0,0,0.7,0.3478258,-0.6499977)" />
    <linearGradient
       id="linearGradient3418">
      <stop
         id="stop3420"
         style="stop-color:#aaaaaa;stop-opacity:1"
         offset="0" />
      <stop
         id="stop3426"
         style="stop-color:#b3b3b3;stop-opacity:1"
         offset="0.26436639" />
      <stop
         id="stop3428"
         style="stop-color:#bebebe;stop-opacity:1"
         offset="0.39481503" />
      <stop
         id="stop3422"
         style="stop-color:#b3b3b3;stop-opacity:1"
         offset="1" />
    </linearGradient>
    <linearGradient
       x1="26.870913"
       y1="45"
       x2="26.746988"
       y2="36.943203"
       id="linearGradient2594"
       xlink:href="#linearGradient3418"
       gradientUnits="userSpaceOnUse"
       gradientTransform="matrix(0.6521739,0,0,0.7,0.3478258,-0.6499977)" />
    <linearGradient
       id="linearGradient3269">
      <stop
         id="stop3271"
         style="stop-color:#ffffff;stop-opacity:1"
         offset="0" />
      <stop
         id="stop3273"
         style="stop-color:#ffffff;stop-opacity:0"
         offset="1" />
    </linearGradient>
    <linearGradient
       x1="19.283365"
       y1="42.361061"
       x2="19.283365"
       y2="34.020142"
       id="linearGradient2591"
       xlink:href="#linearGradient3269"
       gradientUnits="userSpaceOnUse"
       gradientTransform="matrix(0.5661698,0,0,0.5024297,2.4119239,7.1564579)" />
    <linearGradient
       id="linearGradient3104-947-917-603-424-766-313">
      <stop
         id="stop3930"
         style="stop-color:#28673f;stop-opacity:1"
         offset="0" />
      <stop
         id="stop3932"
         style="stop-color:#41ae67;stop-opacity:1"
         offset="1" />
    </linearGradient>
    <linearGradient
       x1="-51.786404"
       y1="35.412201"
       x2="-51.786404"
       y2="2.2594204"
       id="linearGradient2620"
       xlink:href="#linearGradient3104-947-917-603-424-766-313"
       gradientUnits="userSpaceOnUse"
       gradientTransform="matrix(0.5338542,0,0,0.6182037,37.481394,0.9586613)" />
    <linearGradient
       id="linearGradient3298-628-126-871-718-519-851">
      <stop
         id="stop3924"
         style="stop-color:#2f7b48;stop-opacity:1"
         offset="0" />
      <stop
         id="stop3926"
         style="stop-color:#76dd98;stop-opacity:1"
         offset="1" />
    </linearGradient>
    <linearGradient
       x1="31.84656"
       y1="31.999964"
       x2="31.84656"
       y2="0.99868447"
       id="linearGradient2618"
       xlink:href="#linearGradient3298-628-126-871-718-519-851"
       gradientUnits="userSpaceOnUse"
       gradientTransform="matrix(0.6611224,0,0,0.6605792,-1.796041,1.6948635)" />
    <linearGradient
       id="linearGradient3202">
      <stop
         id="stop3204"
         style="stop-color:#ffffff;stop-opacity:1"
         offset="0" />
      <stop
         id="stop3206"
         style="stop-color:#d3eefc;stop-opacity:1"
         offset="1" />
    </linearGradient>
    <linearGradient
       x1="-83.756935"
       y1="-7.8379993"
       x2="-92.222527"
       y2="27.521217"
       id="linearGradient2614"
       xlink:href="#linearGradient3202"
       gradientUnits="userSpaceOnUse"
       gradientTransform="matrix(0.3367001,-8.1116602e-2,8.0611659e-2,0.3388088,44.832798,1.1966524)" />
    <linearGradient
       id="linearGradient3738">
      <stop
         id="stop3742"
         style="stop-color:#ffffff;stop-opacity:1"
         offset="0" />
      <stop
         id="stop3750"
         style="stop-color:#ffffff;stop-opacity:0"
         offset="0.85612506" />
      <stop
         id="stop3744"
         style="stop-color:#ffffff;stop-opacity:0"
         offset="1" />
    </linearGradient>
    <linearGradient
       x1="17.355219"
       y1="8.000001"
       x2="24.007845"
       y2="26.039217"
       id="linearGradient2584"
       xlink:href="#linearGradient3738"
       gradientUnits="userSpaceOnUse"
       gradientTransform="matrix(0.778456,0,0,0.8315217,-2.6890526,-4.6521742)" />
    <linearGradient
       x1="17.355219"
       y1="8.000001"
       x2="24.007845"
       y2="26.039217"
       id="linearGradient2427"
       xlink:href="#linearGradient3738"
       gradientUnits="userSpaceOnUse"
       gradientTransform="matrix(0.778456,0,0,0.8315217,-2.6890526,-4.6521742)" />
    <linearGradient
       x1="-83.756935"
       y1="-7.8379993"
       x2="-92.222527"
       y2="27.521217"
       id="linearGradient2430"
       xlink:href="#linearGradient3202"
       gradientUnits="userSpaceOnUse"
       gradientTransform="matrix(0.4144579,-9.9849745e-2,9.922819e-2,0.4170536,52.783969,-2.6839284)" />
    <linearGradient
       x1="31.84656"
       y1="31.999964"
       x2="31.84656"
       y2="0.99868447"
       id="linearGradient2434"
       xlink:href="#linearGradient3298-628-126-871-718-519-851"
       gradientUnits="userSpaceOnUse"
       gradientTransform="matrix(0.6611224,0,0,0.6605792,-1.796041,1.6948635)" />
    <linearGradient
       x1="-51.786404"
       y1="35.412201"
       x2="-51.786404"
       y2="2.2594204"
       id="linearGradient2436"
       xlink:href="#linearGradient3104-947-917-603-424-766-313"
       gradientUnits="userSpaceOnUse"
       gradientTransform="matrix(0.5338542,0,0,0.6182037,37.481394,0.9586613)" />
    <linearGradient
       x1="19.283365"
       y1="42.361061"
       x2="19.283365"
       y2="34.020142"
       id="linearGradient2440"
       xlink:href="#linearGradient3269"
       gradientUnits="userSpaceOnUse"
       gradientTransform="matrix(0.5661698,0,0,0.5024297,2.4119239,7.1564579)" />
    <linearGradient
       x1="26.870913"
       y1="45"
       x2="26.746988"
       y2="36.943203"
       id="linearGradient2443"
       xlink:href="#linearGradient3418"
       gradientUnits="userSpaceOnUse"
       gradientTransform="matrix(0.6521739,0,0,0.7,0.3478258,-0.6499977)" />
    <linearGradient
       x1="24.000002"
       y1="45"
       x2="24.000002"
       y2="37.974422"
       id="linearGradient2445"
       xlink:href="#linearGradient3406"
       gradientUnits="userSpaceOnUse"
       gradientTransform="matrix(0.6521739,0,0,0.7,0.3478258,-0.6499977)" />
    <radialGradient
       cx="6.702713"
       cy="73.615715"
       r="7.228416"
       fx="6.702713"
       fy="73.615715"
       id="radialGradient2448"
       xlink:href="#linearGradient10691"
       gradientUnits="userSpaceOnUse"
       gradientTransform="matrix(1.521772,0,0,0.4842001,5.7999999,-7.144735)" />
    <linearGradient
       x1="-83.756935"
       y1="-7.8379993"
       x2="-92.222527"
       y2="27.521217"
       id="linearGradient2454"
       xlink:href="#linearGradient3202"
       gradientUnits="userSpaceOnUse"
       gradientTransform="matrix(0.4144579,-9.9849745e-2,9.922819e-2,0.4170536,52.783969,-2.6839284)" />
    <linearGradient
       x1="-83.756935"
       y1="-7.8379993"
       x2="-92.222527"
       y2="27.521217"
       id="linearGradient2457"
       xlink:href="#linearGradient3202"
       gradientUnits="userSpaceOnUse"
       gradientTransform="matrix(0.4144579,-9.9849745e-2,9.922819e-2,0.4170536,51.491473,-0.6839296)" />
  </defs>
  <path
     d="M 27,28.5 C 27,30.432997 22.075132,32 16,32 C 9.9248673,32 4.9999999,30.432997 4.9999999,28.5 C 4.9999999,26.567003 9.9248673,25 16,25 C 22.075132,25 27,26.567003 27,28.5 z"
     id="path2883"
     style="opacity:0.4;fill:url(#radialGradient2448);fill-opacity:1;fill-rule:nonzero;stroke:none;stroke-width:0.80000001;stroke-linecap:butt;stroke-linejoin:miter;marker:none;marker-start:none;marker-mid:none;marker-end:none;stroke-miterlimit:4;stroke-dashoffset:0;stroke-opacity:1;visibility:visible;display:inline;overflow:visible" />
  <path
     d="M 9.467037,24.204783 C 9.467037,24.204783 8.5230609,28.402874 8.5230609,28.683305 C 8.5230609,28.948199 8.3106524,30.499999 9.1751207,30.499999 C 10.024462,30.499999 22.331428,30.499999 22.991057,30.499999 C 23.651927,30.499999 23.440559,28.639022 23.497824,28.491208 C 23.553209,28.348249 22.53283,24.2 22.53283,24.2 L 9.467037,24.204783 z"
     id="path2170"
     style="fill:url(#linearGradient2443);fill-opacity:1;fill-rule:evenodd;stroke:url(#linearGradient2445);stroke-width:1;stroke-linecap:round;stroke-linejoin:round;stroke-miterlimit:4;stroke-dasharray:none;stroke-opacity:1" />
  <path
     d="M 10.338302,24.503249 C 10.338302,24.503249 9.7125251,27.491398 9.5691321,27.956324 C 9.426714,28.418084 9.4583325,28.499999 10.110886,28.499999 C 10.750266,28.499999 21.450124,28.499999 21.967146,28.499999 C 22.497176,28.499999 22.555029,28.336423 22.465492,27.951097 C 22.37794,27.574315 21.661696,24.499999 21.661696,24.499999 L 10.338302,24.503249 z"
     id="path2186"
     style="opacity:0.4;fill:none;fill-opacity:1;fill-rule:evenodd;stroke:url(#linearGradient2440);stroke-width:0.99999988;stroke-linecap:round;stroke-linejoin:round;stroke-miterlimit:4;stroke-dasharray:none;stroke-opacity:1" />
  <path
     d="M 1.1437212,0.00029506181 C 11.047907,0.00029506181 20.952094,0.00029506181 30.856279,0.00029506181 C 31.96043,-0.0088611048 32.054776,1.2126089 31.980901,2.0553816 C 31.980901,9.3156565 31.980898,16.575932 31.980898,23.836206 C 31.9899,24.959738 30.789495,25.055736 29.961256,24.980566 C 20.355409,24.980566 10.749566,24.980566 1.1437212,24.980566 C 0.03956851,24.989722 -0.054775855,23.768252 0.019099217,22.925479 C 0.019099217,15.665202 0.019099217,8.4049273 0.019099217,1.1446522 C 0.0045013755,0.52953068 0.5390027,-0.014508438 1.1437212,0.00029506181 z"
     id="rect3170"
     style="fill:#1a1a1a;fill-opacity:1;fill-rule:evenodd;stroke:none;stroke-width:1.00396323;stroke-linecap:round;stroke-linejoin:round;marker:none;marker-start:none;marker-mid:none;marker-end:none;stroke-miterlimit:4;stroke-dasharray:none;stroke-dashoffset:0;stroke-opacity:1;visibility:visible;display:inline;overflow:visible;enable-background:accumulate" />
  <path
     d="M 2.499962,2.4999613 C 7.802355,2.4999613 24.197646,2.4999613 29.500039,2.4999613 C 29.500039,10.844095 29.500039,15.749201 29.500039,22.500038 C 21.786927,22.500038 10.213071,22.500038 2.499962,22.500038 C 2.499962,12.591333 2.499962,12.408666 2.499962,2.4999613 z"
     id="path4322"
     style="fill:url(#linearGradient2434);fill-opacity:1;stroke:url(#linearGradient2436);stroke-width:0.9999218;stroke-linecap:butt;stroke-linejoin:round;stroke-miterlimit:4;stroke-dasharray:none;stroke-dashoffset:0;stroke-opacity:1;display:inline" />
  <path
     d="M 20.195006,4.2339604 C 19.966964,4.2106716 19.740247,4.3230601 19.623081,4.538826 L 14.630962,13.729982 L 11.421351,11.161957 C 11.135453,11.004754 10.77875,11.105885 10.622527,11.393574 L 9.1832037,13.253052 C 9.0269827,13.540736 9.1320767,13.899567 9.4179727,14.056766 C 9.4179727,14.056766 15.278319,18.92722 15.28555,18.930821 C 15.352556,18.967666 15.422628,18.986205 15.493856,18.995262 C 15.726536,19.024846 15.964658,18.914843 16.084263,18.694584 L 22.816797,6.2991657 C 22.973019,6.0114781 22.867925,5.6526502 22.582029,5.4954501 L 20.421796,4.3025863 C 20.350319,4.2632854 20.271021,4.2417227 20.195006,4.2339604 z"
     id="path1542"
     style="opacity:0.35;fill:#000000;fill-opacity:1;fill-rule:nonzero;stroke:none;stroke-width:1.00278974;stroke-linecap:round;stroke-linejoin:round;marker:none;marker-start:none;marker-mid:none;marker-end:none;stroke-miterlimit:4;stroke-dasharray:none;stroke-dashoffset:0;stroke-opacity:1;visibility:visible;display:inline;overflow:visible" />
  <path
     d="M 20.195006,5.2339604 C 19.966964,5.2106704 19.740247,5.3230604 19.623081,5.5388304 L 14.630962,14.729984 L 11.421351,12.161958 C 11.135453,12.004755 10.77875,12.105886 10.622527,12.393574 L 9.1832037,14.253053 C 9.0269827,14.540737 9.1320767,14.899567 9.4179727,15.056768 C 9.4179727,15.056768 15.278319,19.92722 15.28555,19.930823 C 15.352556,19.967668 15.422628,19.986206 15.493856,19.995261 C 15.726536,20.024847 15.964658,19.914844 16.084263,19.694583 L 22.816797,7.2991704 C 22.973019,7.0114804 22.867925,6.6526504 22.582029,6.4954504 L 20.421796,5.3025904 C 20.350319,5.2632904 20.271021,5.2417204 20.195006,5.2339604 z"
     id="path4368"
     style="fill:url(#linearGradient2457);fill-opacity:1;fill-rule:nonzero;stroke:none;stroke-width:1.00278974;stroke-linecap:round;stroke-linejoin:round;marker:none;marker-start:none;marker-mid:none;marker-end:none;stroke-miterlimit:4;stroke-dasharray:none;stroke-dashoffset:0;stroke-opacity:1;visibility:visible;display:inline;overflow:visible" />
  <path
     d="M 2,2.0260863 L 2,17 C 3.3333333,16.642143 29.562174,8.2726568 29.999993,7.8304336 L 30,2 L 2,2.0260863 z"
     id="path4073"
     style="opacity:0.3;fill:url(#linearGradient2427);fill-opacity:1;fill-rule:evenodd;stroke:none;stroke-width:1px;stroke-linecap:butt;stroke-linejoin:miter;stroke-opacity:1" />
</svg>
